assets/Prince/Medium-Dark/Flat/prince_flat_medium-dark.svg

<svg width="32" height="32" viewBox="0 0 32 32" fill="none" xmlns="http://www.w3.org/2000/svg">
<path d="M13 14.75C13 15.7165 12.2165 16.5 11.25 16.5C10.2835 16.5 9.5 15.7165 9.5 14.75C9.5 13.7835 10.2835 13 11.25 13C12.2165 13 13 13.7835 13 14.75Z" fill="#8B5C56"/>
<path d="M22.5 14.75C22.5 15.7165 21.7165 16.5 20.75 16.5C19.7835 16.5 19 15.7165 19 14.75C19 13.7835 19.7835 13 20.75 13C21.7165 13 22.5 13.7835 22.5 14.75Z" fill="#8B5C56"/>
<path d="M24 30L23.9035 22.9324C21.8135 21.0345 18.9067 20 15.9125 20C12.8977 20 10.099 21.064 8 22.8531V30H24Z" fill="#0092E7"/>
<path d="M26.8735 27.2955C27.1564 28.1755 27.3585 29.0855 27.5 30.0055H23.7408V22.3955C25.1656 23.6955 26.2671 25.3755 26.8735 27.2955Z" fill="#3BC6F6"/>
<path d="M8.23901 22.4258V30.0058H4.5C4.64148 29.1058 4.85369 28.2058 5.13664 27.3358L5.16696 27.2458C5.76318 25.3558 6.84446 23.7158 8.23901 22.4258Z" fill="#3BC6F6"/>
<path d="M7.5 22V24.477C7.5 24.6096 7.55268 24.7368 7.64645 24.8306C7.74021 24.9243 7.86739 24.977 8 24.977C8.13261 24.977 8.25979 24.9243 8.35355 24.8306C8.44188 24.7422 8.49375 24.6243 8.49947 24.5C8.49947 24.5594 8.51006 24.6184 8.53081 24.6742C8.55423 24.7373 8.59012 24.7949 8.63633 24.8437C8.68254 24.8925 8.73812 24.9315 8.79974 24.9584C8.86137 24.9853 8.92778 24.9994 8.995 25C9.06262 24.9992 9.12942 24.985 9.19151 24.9583C9.25361 24.9315 9.30977 24.8926 9.35674 24.844C9.40372 24.7953 9.44057 24.7378 9.46516 24.6749C9.4872 24.6184 9.499 24.5585 9.50006 24.498C9.50301 24.626 9.55361 24.7485 9.64239 24.8414C9.73602 24.9393 9.86455 24.9963 10 25C10.0673 24.9988 10.1337 24.9843 10.1953 24.9574C10.2569 24.9304 10.3126 24.8914 10.3591 24.8428C10.4056 24.7942 10.442 24.7368 10.4662 24.674C10.4887 24.6156 10.5002 24.5535 10.5002 24.491C10.5038 24.6185 10.556 24.7401 10.6464 24.8306C10.7402 24.9243 10.8674 24.977 11 24.977C11.1326 24.977 11.2598 24.9243 11.3536 24.8306C11.4419 24.7422 11.4937 24.6243 11.4995 24.5C11.4995 24.5594 11.5101 24.6184 11.5308 24.6742C11.5542 24.7373 11.5901 24.7949 11.6363 24.8437C11.6825 24.8925 11.7381 24.9315 11.7997 24.9584C11.8614 24.9853 11.9278 24.9994 11.995 25C12.0626 24.9992 12.1294 24.985 12.1915 24.9583C12.2536 24.9315 12.3098 24.8926 12.3567 24.844C12.4037 24.7953 12.4406 24.7378 12.4652 24.6749C12.4897 24.6119 12.5016 24.5446 12.5 24.477V22H7.5Z" fill="#FCD53F"/>
<path d="M19.5 22V24.477C19.5 24.6096 19.5527 24.7368 19.6464 24.8306C19.7402 24.9243 19.8674 24.977 20 24.977C20.1326 24.977 20.2598 24.9243 20.3536 24.8306C20.4419 24.7422 20.4937 24.6243 20.4995 24.5C20.4995 24.5594 20.5101 24.6184 20.5308 24.6742C20.5542 24.7373 20.5901 24.7949 20.6363 24.8437C20.6825 24.8925 20.7381 24.9315 20.7997 24.9584C20.8614 24.9853 20.9278 24.9994 20.995 25C21.0626 24.9992 21.1294 24.985 21.1915 24.9583C21.2536 24.9315 21.3098 24.8926 21.3567 24.844C21.4037 24.7953 21.4406 24.7378 21.4652 24.6749C21.4872 24.6184 21.499 24.5585 21.5001 24.498C21.503 24.626 21.5536 24.7485 21.6424 24.8414C21.736 24.9393 21.8645 24.9963 22 25C22.0673 24.9988 22.1337 24.9843 22.1953 24.9574C22.2569 24.9304 22.3126 24.8914 22.3591 24.8428C22.4056 24.7942 22.442 24.7368 22.4662 24.674C22.4887 24.6156 22.5002 24.5535 22.5002 24.491C22.5038 24.6185 22.556 24.7401 22.6464 24.8306C22.7402 24.9243 22.8674 24.977 23 24.977C23.1326 24.977 23.2598 24.9243 23.3536 24.8306C23.4419 24.7422 23.4937 24.6243 23.4995 24.5C23.4995 24.5594 23.5101 24.6184 23.5308 24.6742C23.5542 24.7373 23.5901 24.7949 23.6363 24.8437C23.6825 24.8925 23.7381 24.9315 23.7997 24.9584C23.8614 24.9853 23.9278 24.9994 23.995 25C24.0626 24.9992 24.1294 24.985 24.1915 24.9583C24.2536 24.9315 24.3098 24.8926 24.3567 24.844C24.4037 24.7953 24.4406 24.7378 24.4652 24.6749C24.4898 24.6119 24.5016 24.5446 24.5 24.477V22H19.5Z" fill="#FCD53F"/>
<path d="M15.5 22.8257H16.5V29.9857H15.5V22.8257Z" fill="#FCD53F"/>
<path d="M7 20.75C7 20.3358 7.33579 20 7.75 20H24.25C24.6642 20 25 20.3358 25 20.75V21.75C25 22.1642 24.6642 22.5 24.25 22.5H19.75C19.5672 22.5 19.3997 22.4346 19.2695 22.3259C18.544 23.3494 17.347 24.0002 15.995 24.0002C14.6448 24.0002 13.4491 23.3511 12.7256 22.33C12.5962 22.4362 12.4305 22.5 12.25 22.5H7.75C7.33579 22.5 7 22.1642 7 21.75V20.75Z" fill="#FFF478"/>
<path d="M18 25.5C18 25.7761 17.7761 26 17.5 26C17.2239 26 17 25.7761 17 25.5C17 25.2239 17.2239 25 17.5 25C17.7761 25 18 25.2239 18 25.5Z" fill="#FFF478"/>
<path d="M18 28.5C18 28.7761 17.7761 29 17.5 29C17.2239 29 17 28.7761 17 28.5C17 28.2239 17.2239 28 17.5 28C17.7761 28 18 28.2239 18 28.5Z" fill="#FFF478"/>
<path d="M16 22.5C14.8929 22.5 14 21.6914 14 20.6887V19.5H18V20.6887C18 21.6914 17.1071 22.5 16 22.5Z" fill="#8B5C56"/>
<path d="M10.5 11.9L10.846 17.3735C11.1207 19.4457 12.9015 20.9999 14.9977 20.9999H16.0051H17.0125C19.1087 20.9999 20.8793 19.4559 21.1642 17.3735L21.5 11.8999L10.5 11.9Z" fill="#966661"/>
<path d="M12.0096 14.39C12.1676 13.73 12.7603 13.25 13.4517 13.25C14.1826 13.25 14.7851 13.77 14.9135 14.47C14.9431 14.62 14.8147 14.76 14.6666 14.76H12.296C12.1084 14.76 11.9602 14.58 12.0096 14.39Z" fill="white"/>
<path d="M19.9904 14.39C19.8324 13.73 19.2397 13.25 18.5483 13.25C17.8273 13.25 17.2248 13.77 17.0865 14.47C17.0569 14.62 17.1853 14.76 17.3334 14.76H19.704C19.8916 14.76 20.0398 14.58 19.9904 14.39Z" fill="white"/>
<path d="M12.7307 14.5C12.7307 13.97 13.1554 13.54 13.6789 13.54C14.2024 13.54 14.6271 13.97 14.6271 14.51C14.6271 14.59 14.6173 14.68 14.6074 14.76H12.7702C12.7406 14.67 12.7307 14.59 12.7307 14.5Z" fill="#7D4533"/>
<path d="M19.2792 14.5C19.2792 13.97 18.8545 13.54 18.331 13.54C17.7976 13.54 17.3729 13.97 17.363 14.5C17.363 14.59 17.3828 14.68 17.4025 14.76H19.2397C19.2693 14.67 19.2792 14.59 19.2792 14.5Z" fill="#7D4533"/>
<path d="M13.6789 13.9502C13.9752 13.9502 14.2221 14.2002 14.2221 14.5002C14.2221 14.5902 14.1925 14.6702 14.153 14.7602H13.1949C13.1554 14.6802 13.1356 14.5902 13.1356 14.5002C13.1356 14.2002 13.3826 13.9502 13.6789 13.9502Z" fill="black"/>
<path d="M18.331 13.9502C18.0347 13.9502 17.7878 14.2002 17.7878 14.5002C17.7878 14.5902 17.8076 14.6702 17.8569 14.7602H18.815C18.8545 14.6802 18.8743 14.5902 18.8743 14.5002C18.8743 14.2002 18.6274 13.9502 18.331 13.9502Z" fill="black"/>
<path d="M13.5208 14.1202C13.5208 14.2141 13.4456 14.2902 13.3528 14.2902C13.2601 14.2902 13.1849 14.2141 13.1849 14.1202C13.1849 14.0263 13.2601 13.9502 13.3528 13.9502C13.4456 13.9502 13.5208 14.0263 13.5208 14.1202Z" fill="white"/>
<path d="M18.2026 14.1202C18.2026 14.2141 18.1274 14.2902 18.0347 14.2902C17.9419 14.2902 17.8668 14.2141 17.8668 14.1202C17.8668 14.0263 17.9419 13.9502 18.0347 13.9502C18.1274 13.9502 18.2026 14.0263 18.2026 14.1202Z" fill="white"/>
<path d="M15.5908 14.2439L15.025 15.9915C14.9139 16.3507 15.1867 16.71 15.5807 16.71H16.4193C16.8133 16.71 17.0861 16.3507 16.975 15.9915L16.4092 14.2439C16.2779 13.8653 15.712 13.8653 15.5908 14.2439Z" fill="#75443E"/>
<path d="M16.0019 17.9068C15.4502 17.9068 14.9275 17.7646 14.4919 17.5208C14.3468 17.4395 14.1822 17.6122 14.279 17.7646C14.6468 18.3538 15.2856 18.75 16.0019 18.75C16.7278 18.75 17.3666 18.3538 17.7248 17.7646C17.8119 17.6122 17.657 17.4395 17.5118 17.5208C17.0763 17.7646 16.5536 17.9068 16.0019 17.9068Z" fill="#990838"/>
<path d="M10.75 9.5C10.75 9.91421 10.4142 10.25 10 10.25C9.58579 10.25 9.25 9.91421 9.25 9.5C9.25 9.08579 9.58579 8.75 10 8.75C10.4142 8.75 10.75 9.08579 10.75 9.5Z" fill="#37C9CD"/>
<path d="M22.75 9.5C22.75 9.91421 22.4142 10.25 22 10.25C21.5858 10.25 21.25 9.91421 21.25 9.5C21.25 9.08579 21.5858 8.75 22 8.75C22.4142 8.75 22.75 9.08579 22.75 9.5Z" fill="#37C9CD"/>
<path d="M19.9626 7.49755C20.2009 7.72647 20.4691 7.92553 20.767 8.07482L21.1444 10.364L21.5 12C21.5 12 21.7306 13 21.6609 13.4196C21.5911 13.8391 21.353 13.9371 21.055 13.957C21.055 13.957 21.1047 13.1011 21.1444 12.5437C21.1643 12.2551 21.055 11.9764 20.8366 11.7873L20.6379 11.6181C20.3896 11.3991 20.2506 11.0806 20.2506 10.7422V9.88626C20.2506 9.63744 20.0917 9.42843 19.8534 9.36871C19.2277 9.20946 17.877 8.94073 16 8.94073C14.123 8.94073 12.7723 9.20946 12.1466 9.35876C11.9182 9.41847 11.7494 9.63744 11.7494 9.87631V10.7323C11.7494 11.0707 11.6004 11.3892 11.3521 11.6181L11.1733 11.7773C10.9648 11.9664 10.8456 12.2451 10.8655 12.5338C10.9052 13.0911 10.9648 13.957 10.9648 13.957C10.6569 13.9471 10.3987 13.7281 10.3391 13.4196C10.2795 13.111 10.5 12 10.5 12L10.9648 10.364L11.2329 8.07482C11.5309 7.92553 11.799 7.73642 12.0274 7.49755L13.0305 6.50225C13.5966 5.93493 14.4606 5.79559 15.1757 6.1539C15.712 6.343 16.288 6.343 16.8144 6.1539C17.7479 5.73587 18.5325 6.07427 19.1482 6.6814L19.9626 7.49755Z" fill="#2D242D"/>
<path d="M12.11 5.34557L11 7.90557L14.43 7.50557L12.78 5.26557C12.97 5.13557 13.09 4.92557 13.09 4.67557C13.09 4.27557 12.77 3.95557 12.37 3.95557C11.97 3.95557 11.65 4.27557 11.65 4.67557C11.65 4.98557 11.84 5.23557 12.11 5.34557Z" fill="#F9C23C"/>
<path d="M19.8199 5.34557L20.9299 7.90557L17.4999 7.50557L19.1499 5.26557C18.9599 5.13557 18.8399 4.92557 18.8399 4.67557C18.8399 4.27557 19.1599 3.95557 19.5599 3.95557C19.9599 3.95557 20.2799 4.27557 20.2799 4.67557C20.2799 4.98557 20.0899 5.23557 19.8199 5.34557Z" fill="#F9C23C"/>
<path d="M23.4983 5.16429C23.5291 4.72423 23.1286 4.36239 22.6663 4.42107C22.3376 4.46019 22.0706 4.71445 22.0295 5.02738C22.0089 5.20341 22.05 5.36966 22.1527 5.50657C22.0398 5.50657 21.9165 5.53591 21.8035 5.60436L19.6875 6.89522C19.4102 7.06147 19.0404 7.0028 18.8453 6.74854L16.5033 3.71696C16.4828 3.69741 16.4622 3.66807 16.4417 3.64851C16.7499 3.48226 16.9553 3.15955 16.9142 2.79771C16.8731 2.38698 16.5341 2.05449 16.1027 2.00559C15.5481 1.94692 15.0756 2.35765 15.0756 2.87595C15.0756 3.20844 15.2707 3.50182 15.5583 3.64851C15.5378 3.66807 15.5173 3.68763 15.4967 3.71696L13.1548 6.74854C12.9596 7.0028 12.5898 7.07125 12.3125 6.89522L10.1965 5.60436C10.0835 5.53591 9.96028 5.50657 9.8473 5.50657C9.93974 5.36966 9.9911 5.20341 9.97056 5.02738C9.92947 4.71445 9.66241 4.46019 9.33371 4.42107C8.86122 4.36239 8.47089 4.72423 8.50171 5.16429C8.52225 5.40878 8.6866 5.62392 8.91257 5.74127C9.05638 5.80973 9.18991 5.82928 9.31317 5.81951C9.24127 5.92708 9.22072 6.07377 9.25154 6.22045L10.4326 11.9004C10.4447 11.9584 10.4958 12 10.555 12H12.8055H16H19.1945H21.445C21.5043 12 21.5554 11.9584 21.5674 11.9004L22.7485 6.22045C22.7793 6.07377 22.7485 5.92708 22.6869 5.81951C22.8101 5.82928 22.9437 5.81951 23.0875 5.75105C23.3134 5.6337 23.4778 5.41856 23.4983 5.16429Z" fill="#FFB02E"/>
<path d="M16 10.627C16.6904 10.627 17.25 10.0804 17.25 9.40625C17.25 8.73207 16.6904 8.18555 16 8.18555C15.3096 8.18555 14.75 8.73207 14.75 9.40625C14.75 10.0804 15.3096 10.627 16 10.627Z" fill="#00D1ED"/>
<path d="M13.5 9.5C13.5 9.91421 13.1642 10.25 12.75 10.25C12.3358 10.25 12 9.91421 12 9.5C12 9.08579 12.3358 8.75 12.75 8.75C13.1642 8.75 13.5 9.08579 13.5 9.5Z" fill="#F92F60"/>
<path d="M20 9.5C20 9.91421 19.6642 10.25 19.25 10.25C18.8358 10.25 18.5 9.91421 18.5 9.5C18.5 9.08579 18.8358 8.75 19.25 8.75C19.6642 8.75 20 9.08579 20 9.5Z" fill="#F92F60"/>
</svg>

<svg xmlns="http://www.w3.org/2000/svg" width="32" height="32" fill="none"><path fill="#8B5C56" d="M13 14.75a1.75 1.75 0 1 1-3.5 0 1.75 1.75 0 0 1 3.5 0ZM22.5 14.75a1.75 1.75 0 1 1-3.5 0 1.75 1.75 0 0 1 3.5 0Z"/><path fill="#0092E7" d="m24 30-.096-7.068C21.814 21.035 18.907 20 15.912 20 12.899 20 10.1 21.064 8 22.853V30h16Z"/><path fill="#3BC6F6" d="M26.873 27.296c.283.88.485 1.79.627 2.71h-3.76v-7.61a11.207 11.207 0 0 1 3.134 4.9ZM8.239 22.426v7.58H4.5c.141-.9.354-1.8.637-2.67l.03-.09a11.123 11.123 0 0 1 3.072-4.82Z"/><path fill="#FCD53F" d="M7.5 22v2.477a.5.5 0 0 0 1 .023.5.5 0 0 0 .495.5.513.513 0 0 0 .505-.502.514.514 0 0 0 .5.502.51.51 0 0 0 .5-.509.5.5 0 0 0 1 .009.5.5 0 0 0 .495.5.513.513 0 0 0 .505-.523V22h-5ZM19.5 22v2.477a.5.5 0 0 0 1 .023.5.5 0 0 0 .495.5.513.513 0 0 0 .505-.502.514.514 0 0 0 .5.502.51.51 0 0 0 .5-.509.5.5 0 0 0 1 .009.5.5 0 0 0 .495.5.513.513 0 0 0 .505-.523V22h-5ZM15.5 22.826h1v7.16h-1v-7.16Z"/><path fill="#FFF478" d="M7 20.75a.75.75 0 0 1 .75-.75h16.5a.75.75 0 0 1 .75.75v1a.75.75 0 0 1-.75.75h-4.5a.747.747 0 0 1-.48-.174A3.991 3.991 0 0 1 15.995 24c-1.35 0-2.546-.649-3.27-1.67a.747.747 0 0 1-.475.17h-4.5a.75.75 0 0 1-.75-.75v-1ZM18 25.5a.5.5 0 1 1-1 0 .5.5 0 0 1 1 0ZM18 28.5a.5.5 0 1 1-1 0 .5.5 0 0 1 1 0Z"/><path fill="#8B5C56" d="M16 22.5c-1.107 0-2-.809-2-1.811V19.5h4v1.189c0 1.002-.893 1.811-2 1.811Z"/><path fill="#966661" d="m10.5 11.9.346 5.473A4.189 4.189 0 0 0 14.998 21H17.013a4.188 4.188 0 0 0 4.151-3.627L21.5 11.9h-11Z"/><path fill="#fff" d="M12.01 14.39c.158-.66.75-1.14 1.442-1.14.73 0 1.333.52 1.462 1.22.03.15-.1.29-.247.29h-2.371a.297.297 0 0 1-.286-.37ZM19.99 14.39a1.487 1.487 0 0 0-1.442-1.14c-.72 0-1.323.52-1.461 1.22-.03.15.098.29.246.29h2.371c.188 0 .336-.18.286-.37Z"/><path fill="#7D4533" d="M12.73 14.5c0-.53.425-.96.949-.96.523 0 .948.43.948.97 0 .08-.01.17-.02.25H12.77a.793.793 0 0 1-.04-.26ZM19.28 14.5c0-.53-.425-.96-.949-.96a.971.971 0 0 0-.968.96c0 .09.02.18.04.26h1.837c.03-.09.04-.17.04-.26Z"/><path fill="#000" d="M13.679 13.95c.296 0 .543.25.543.55 0 .09-.03.17-.069.26h-.958a.59.59 0 0 1-.06-.26c0-.3.248-.55.544-.55ZM18.331 13.95a.551.551 0 0 0-.543.55c0 .09.02.17.069.26h.958a.59.59 0 0 0 .06-.26c0-.3-.248-.55-.544-.55Z"/><path fill="#fff" d="M13.52 14.12c0 .094-.074.17-.167.17a.169.169 0 0 1-.168-.17c0-.094.075-.17.168-.17.093 0 .168.076.168.17ZM18.203 14.12c0 .094-.076.17-.168.17a.169.169 0 0 1-.168-.17c0-.094.075-.17.168-.17.092 0 .168.076.168.17Z"/><path fill="#75443E" d="m15.59 14.244-.565 1.748c-.111.359.162.718.556.718h.838c.394 0 .667-.36.556-.719l-.566-1.747c-.131-.379-.697-.379-.818 0Z"/><path fill="#990838" d="M16.002 17.907a3.104 3.104 0 0 1-1.51-.386c-.145-.082-.31.091-.213.244.368.589 1.007.985 1.723.985.726 0 1.365-.396 1.723-.985.087-.153-.068-.326-.213-.244a3.103 3.103 0 0 1-1.51.386Z"/><path fill="#37C9CD" d="M10.75 9.5a.75.75 0 1 1-1.5 0 .75.75 0 0 1 1.5 0ZM22.75 9.5a.75.75 0 1 1-1.5 0 .75.75 0 0 1 1.5 0Z"/><path fill="#2D242D" d="M19.963 7.498c.238.228.506.428.804.577l.377 2.289L21.5 12s.23 1 .16 1.42c-.069.42-.307.517-.605.537 0 0 .05-.856.09-1.413a.91.91 0 0 0-.308-.757l-.2-.169a1.162 1.162 0 0 1-.386-.876v-.856a.523.523 0 0 0-.398-.517c-.625-.16-1.976-.428-3.853-.428-1.877 0-3.228.268-3.853.418a.543.543 0 0 0-.398.517v.856c0 .339-.149.657-.397.886l-.179.16a.94.94 0 0 0-.307.756c.04.557.099 1.423.099 1.423a.657.657 0 0 1-.626-.537c-.06-.309.161-1.42.161-1.42l.465-1.636.268-2.29c.298-.148.566-.338.794-.576l1.004-.996a1.855 1.855 0 0 1 2.145-.348c.536.189 1.112.189 1.638 0 .934-.418 1.718-.08 2.334.527l.815.817Z"/><path fill="#F9C23C" d="M12.11 5.346 11 7.906l3.43-.4-1.65-2.24c.19-.13.31-.34.31-.59 0-.4-.32-.72-.72-.72a.719.719 0 0 0-.26 1.39ZM19.82 5.346l1.11 2.56-3.43-.4 1.65-2.24a.703.703 0 0 1-.31-.59c0-.4.32-.72.72-.72a.719.719 0 0 1 .26 1.39Z"/><path fill="#FFB02E" d="M23.498 5.164c.031-.44-.37-.802-.832-.743a.724.724 0 0 0-.637.606c-.02.176.021.343.124.48a.677.677 0 0 0-.35.097l-2.116 1.291a.649.649 0 0 1-.842-.146l-2.342-3.032c-.02-.02-.04-.049-.061-.068.308-.167.513-.49.472-.851-.04-.411-.38-.744-.811-.792-.555-.06-1.027.352-1.027.87 0 .332.195.626.482.773-.02.02-.04.039-.061.068l-2.342 3.032a.638.638 0 0 1-.842.146l-2.117-1.29a.677.677 0 0 0-.349-.098.707.707 0 0 0 .124-.48.724.724 0 0 0-.637-.606c-.473-.059-.863.303-.832.743.02.245.185.46.41.577a.773.773 0 0 0 .401.079.53.53 0 0 0-.061.4l1.18 5.68c.013.058.064.1.123.1h10.89c.06 0 .11-.042.122-.1l1.181-5.68a.581.581 0 0 0-.061-.4c.123.01.257 0 .4-.069a.74.74 0 0 0 .411-.587Z"/><path fill="#00D1ED" d="M16 10.627c.69 0 1.25-.547 1.25-1.22 0-.675-.56-1.221-1.25-1.221s-1.25.546-1.25 1.22c0 .674.56 1.221 1.25 1.221Z"/><path fill="#F92F60" d="M13.5 9.5a.75.75 0 1 1-1.5 0 .75.75 0 0 1 1.5 0ZM20 9.5a.75.75 0 1 1-1.5 0 .75.75 0 0 1 1.5 0Z"/></svg>
